assets/Timer clock/Flat/timer_clock_flat.svg

<svg width="32" height="32" viewBox="0 0 32 32" fill="none" xmlns="http://www.w3.org/2000/svg">
<path d="M15.3748 2.01469C8.38207 2.34475 3 8.3659 3 15.3672V26.8794C3 28.5997 4.40054 30 6.1212 30H25.8788C27.5994 30 29 28.5997 29 26.8794V14.9972C29.01 7.61575 22.8376 1.66463 15.3748 2.01469Z" fill="#00A6ED"/>
<path d="M16 25.9946C22.0751 25.9946 27 21.0698 27 14.9946C27 8.9195 22.0751 3.99463 16 3.99463C9.92487 3.99463 5 8.9195 5 14.9946C5 21.0698 9.92487 25.9946 16 25.9946Z" fill="#636363"/>
<path d="M25 14.9946C25 19.9652 20.9706 23.9946 16 23.9946C11.0294 23.9946 7 19.9652 7 14.9946C7 10.0241 11.0294 5.99463 16 5.99463C20.9706 5.99463 25 10.0241 25 14.9946ZM11.9961 10.3745C12.1748 9.85194 11.8962 9.28343 11.3737 9.10465C10.8511 8.92588 10.2826 9.20454 10.1039 9.72705C9.92509 10.2496 10.2037 10.8181 10.7263 10.9969C11.2488 11.1756 11.8173 10.897 11.9961 10.3745ZM21.95 10.0547C21.95 9.50246 21.5023 9.05474 20.95 9.05474C20.3977 9.05474 19.95 9.50246 19.95 10.0547C19.95 10.607 20.3977 11.0547 20.95 11.0547C21.5023 11.0547 21.95 10.607 21.95 10.0547ZM17 21.9948C17 21.4425 16.5523 20.9948 16 20.9948C15.4477 20.9948 15 21.4425 15 21.9948C15 22.5471 15.4477 22.9948 16 22.9948C16.5523 22.9948 17 22.5471 17 21.9948ZM11.05 20.9448C11.6023 20.9448 12.05 20.497 12.05 19.9448C12.05 19.3925 11.6023 18.9448 11.05 18.9448C10.4977 18.9448 10.05 19.3925 10.05 19.9448C10.05 20.497 10.4977 20.9448 11.05 20.9448ZM23.8923 14.5535C23.6493 14.0576 23.0502 13.8527 22.5543 14.0957C22.0584 14.3388 21.8535 14.9378 22.0965 15.4337C22.3396 15.9296 22.9386 16.1346 23.4345 15.8915C23.9304 15.6485 24.1354 15.0494 23.8923 14.5535ZM9.43509 15.8914C9.93099 15.6483 10.136 15.0493 9.89289 14.5534C9.64983 14.0575 9.05079 13.8525 8.55489 14.0956C8.059 14.3387 7.85403 14.9377 8.09709 15.4336C8.34015 15.9295 8.9392 16.1345 9.43509 15.8914ZM21.2634 19.0006C20.7409 18.8219 20.1724 19.1005 19.9936 19.623C19.8149 20.1456 20.0935 20.7141 20.616 20.8928C21.1385 21.0716 21.7071 20.793 21.8858 20.2704C22.0646 19.7479 21.7859 19.1794 21.2634 19.0006Z" fill="#D3D3D3"/>
<path d="M16 18.9946C15.45 18.9946 15 18.5446 15 17.9946V11.9946C15 11.4446 15.45 10.9946 16 10.9946C16.55 10.9946 17 11.4446 17 11.9946V17.9946C17 18.5546 16.55 18.9946 16 18.9946Z" fill="#9B9B9B"/>
<path d="M16 8.99463C16.5523 8.99463 17 8.54691 17 7.99463C17 7.44234 16.5523 6.99463 16 6.99463C15.4477 6.99463 15 7.44234 15 7.99463C15 8.54691 15.4477 8.99463 16 8.99463Z" fill="#F8312F"/>
</svg>

<svg xmlns="http://www.w3.org/2000/svg" width="32" height="32" fill="none"><path fill="#00A6ED" d="M15.375 2.015C8.382 2.345 3 8.365 3 15.367V26.88C3 28.6 4.4 30 6.121 30H25.88C27.599 30 29 28.6 29 26.88V14.996c.01-7.381-6.162-13.332-13.625-12.982Z"/><path fill="#636363" d="M16 25.995c6.075 0 11-4.925 11-11s-4.925-11-11-11-11 4.924-11 11c0 6.075 4.925 11 11 11Z"/><path fill="#D3D3D3" d="M25 14.995a9 9 0 1 1-18 0 9 9 0 0 1 18 0Zm-13.004-4.62a1 1 0 1 0-1.892-.648 1 1 0 0 0 1.892.647Zm9.954-.32a1 1 0 1 0-2 0 1 1 0 0 0 2 0ZM17 21.995a1 1 0 1 0-2 0 1 1 0 0 0 2 0Zm-5.95-1.05a1 1 0 1 0 0-2 1 1 0 0 0 0 2Zm12.842-6.392a1 1 0 1 0-1.796.88 1 1 0 0 0 1.796-.88ZM9.435 15.892a1 1 0 1 0-.88-1.795 1 1 0 0 0 .88 1.795Zm11.828 3.11a1 1 0 1 0-.647 1.892 1 1 0 0 0 .647-1.892Z"/><path fill="#9B9B9B" d="M16 18.995c-.55 0-1-.45-1-1v-6c0-.55.45-1 1-1s1 .45 1 1v6c0 .56-.45 1-1 1Z"/><path fill="#F8312F" d="M16 8.995a1 1 0 1 0 0-2 1 1 0 0 0 0 2Z"/></svg>
